icon-themes/sifr_svg/cmd/sc_fontworkshapetype.fontwork-curve-down.svg

<svg viewBox="0 0 16 16" xmlns="http://www.w3.org/2000/svg"><g fill="#555753"><path d="m3 3.474609v9.525391h10v-6z" opacity=".35"/><path d="m1 2v10c0 1.656854 3.1340068 3 7 3 3.865993 0 7-1.343146 7-3v-6c-4.018505-.0707468-9.2011881-1.1761673-12-4zm2 2.2949219c2.6602541 1.8668631 7.334773 3.7746777 10 3.5390625v4.1660156c0 .552285-2.238576 1-5 1-2.7614237 0-5-.447715-5-1z"/></g></svg>

<svg xmlns="http://www.w3.org/2000/svg" viewBox="0 0 16 16">
  <path
     style="opacity:0.35;fill:#555753"
     d="M 3,3.474609 V 13 H 13 V 7 Z"
     />
  <path
     style="fill:#555753"
     d="M 1 2 L 1 12 C 1 13.656854 4.1340068 15 8 15 C 11.865993 15 15 13.656854 15 12 L 15 6 C 10.981495 5.9292532 5.7988119 4.8238327 3 2 L 1 2 z M 3 4.2949219 C 5.6602541 6.161785 10.334773 8.0695996 13 7.8339844 L 13 12 C 13 12.552285 10.761424 13 8 13 C 5.2385763 13 3 12.552285 3 12 L 3 4.2949219 z "
     />
</svg>
